X: 20351
M: 3/8
L: 1/8
K: F
c |\
(A/B/)cc | (d/e/)ff | (G/A/)BB | {B}A2(f/g/) |\
(a/g/)(f/e/)(d/c/) | fac' | cde | f2 ::\
b |\
(c'/b/)gg | (g/e/)cc | (c'/a/)ff | fac' | c'/b/gg |
(g/e/)cc | (f/d/)(f/a/)(g/e/) | "^Fine"f2 :: c |\
(cA)c | (fe)f | (d^c)d | B2G |\
(cA)c | (fe)f | (d^c)d | B2G |\


